X: 1
T: Fiddler's Chair, The
M: 4/4
L: 1/8
R: reel
K: Gmaj
|:(3BcB Ac BGGE|DEFG ABcA|GEED E2Bd | edBG BAA2 |
| (3BcB Ac BGGE|DEFG ABcA|GEED E2Bd | edBG AGG2 :|
|: Bdef gage|gage dBBA|GABG Bdd2 | edBG BAA2 |
| Bdef gage|gage dBBA|GABG Bdd2 | edBG AGG2 :|
